img/fb.svg

<svg width="26" height="26" viewBox="0 0 26 26" fill="none" xmlns="http://www.w3.org/2000/svg">
<path d="M26 13C26 20.1797 20.1797 26 13 26C5.8203 26 0 20.1797 0 13C0 5.8203 5.8203 0 13 0C20.1797 0 26 5.8203 26 13Z" fill="#D2D5D3"/>
<path d="M16.5003 6.00291L14.6849 6C12.6452 6 11.3271 7.35233 11.3271 9.44542V11.034H9.50177C9.34404 11.034 9.21631 11.1619 9.21631 11.3196V13.6213C9.21631 13.779 9.34419 13.9067 9.50177 13.9067H11.3271V19.7145C11.3271 19.8723 11.4549 20 11.6126 20H13.9942C14.1519 20 14.2797 19.8721 14.2797 19.7145V13.9067H16.414C16.5717 13.9067 16.6994 13.779 16.6994 13.6213L16.7003 11.3196C16.7003 11.2439 16.6701 11.1713 16.6167 11.1177C16.5632 11.0641 16.4904 11.034 16.4147 11.034H14.2797V9.68734C14.2797 9.04008 14.4339 8.71151 15.277 8.71151L16.5 8.71107C16.6576 8.71107 16.7853 8.58319 16.7853 8.4256V6.28838C16.7853 6.13094 16.6578 6.0032 16.5003 6.00291Z" fill="white"/>
</svg>

<svg width="26" height="26" fill="none" xmlns="http://www.w3.org/2000/svg"><path d="M26 13c0 7.18-5.82 13-13 13S0 20.18 0 13 5.82 0 13 0s13 5.82 13 13z" fill="#D2D5D3"/><path d="M16.5 6.003L14.685 6c-2.04 0-3.358 1.352-3.358 3.445v1.589H9.502a.286.286 0 00-.286.286v2.301c0 .158.128.286.286.286h1.825v5.808c0 .157.128.285.286.285h2.381a.286.286 0 00.286-.285v-5.808h2.134a.285.285 0 00.285-.286l.001-2.301a.286.286 0 00-.285-.286H14.28V9.687c0-.647.154-.975.997-.975H16.5a.285.285 0 00.285-.286V6.288a.285.285 0 00-.285-.285z" fill="#fff"/></svg>
